X: 1
T:The First of February
M:6/8
L:1/8
C:Jono Lonie
O:New Zealand
Q:1/4=140
R:Jig
S:Farewell to the Spit
K:G
"G"G3 Bdg|edB "D"dBA|"G"B3 dgb|age "Em"ged|
"G"G3 Bdg|edB "D"dBA|"G"dBA Bdg|edB "D"dBA:|
|:"G"G2B AGE|DGD "C"EGD|"G"DGA B3|BdA "Em"B3|
|[1 "G"G2 B AGE| DGD EGD|"C"EEd EEd|"D"FFd FFd:|
|[2 "C"EEd EEd|"D"FFd FFd|"C"eee edB|"D"eee dBA||


